public/assets/standards/sci-ai/why-sci-feat-3.svg

<svg width="420" height="420" viewBox="0 0 420 420" fill="none" xmlns="http://www.w3.org/2000/svg">
<path d="M272.15 57.85C255.91 51.76 238.97 46.67 221.63 46.74C198.26 46.84 176.05 56.27 154.79 65.98C115.66 83.84 84.8 111.83 52.72 140.26C26.75 163.27 22.49 210.99 23.27 243.41C23.36 247.32 23.46 251.25 23.64 255.18C24.19 267.27 25.48 279.32 29.72 290.59C36.51 308.66 52.27 323.91 64.17 338.78C77.05 354.88 89.68 368.31 107.02 379.8C126.65 392.81 154.73 415.16 178.95 417.21C209.44 419.79 232.78 421.03 262.09 411.9C293.3 402.17 327.51 387.97 349.97 363.09C361.75 350.04 369.44 331.42 378.2 316.25C395.3 286.65 402.39 254.73 397.99 220.71C393.38 185.1 379.39 157.8 364.64 125.97C345.69 85.09 312.39 72.94 272.16 57.86L272.15 57.85Z" fill="#EBF2D4"/>
<path d="M408.75 216.51C411.43 216.51 413.6 218.69 413.6 221.36V266.11C413.6 268.79 411.42 270.96 408.75 270.96H249.38C246.7 270.96 244.53 268.78 244.53 266.11V221.36C244.53 218.68 246.71 216.51 249.38 216.51H408.75ZM408.75 213.72H249.38C245.18 213.72 241.74 217.16 241.74 221.36V266.11C241.74 270.31 245.18 273.75 249.38 273.75H408.75C412.95 273.75 416.39 270.31 416.39 266.11V221.36C416.39 217.16 412.95 213.72 408.75 213.72Z" fill="#ADCB53"/>
<path d="M408.75 274.67C411.43 274.67 413.6 276.85 413.6 279.52V324.27C413.6 326.95 411.42 329.12 408.75 329.12H249.38C246.7 329.12 244.53 326.94 244.53 324.27V279.52C244.53 276.84 246.71 274.67 249.38 274.67H408.75ZM408.75 271.88H249.38C245.18 271.88 241.74 275.32 241.74 279.52V324.27C241.74 328.47 245.18 331.91 249.38 331.91H408.75C412.95 331.91 416.39 328.47 416.39 324.27V279.52C416.39 275.32 412.95 271.88 408.75 271.88Z" fill="#ADCB53"/>
<path d="M364.79 308.07L374.39 317.68L380.56 311.5L386.74 317.68L396.34 308.07L390.17 301.9L396.34 295.73L386.74 286.12L380.56 292.3L374.39 286.12L364.79 295.73L370.96 301.9L364.79 308.07Z" fill="#A9C753"/>
<path d="M314.05 307.59H350.78V293.72H314.05V307.59Z" fill="#00544F"/>
<path d="M364.79 249.91L374.39 259.51L380.56 253.34L386.74 259.51L396.34 249.91L390.17 243.73L396.34 237.56L386.74 227.96L380.56 234.13L374.39 227.96L364.79 237.56L370.96 243.73L364.79 249.91Z" fill="#A9C753"/>
<path d="M314.05 250.67H350.78V236.8H314.05V250.67Z" fill="#00544F"/>
<path d="M228.51 104.46V232.29H47.64V104.93L228.51 104.46ZM231.3 101.66L44.85 102.14V235.07H231.3V101.66Z" fill="#ADCB53"/>
<path d="M231.3 84.52H44.85V106.13H231.3V84.52Z" fill="#A8C653"/>
<path d="M224.043 91.6856L221.773 89.4158L212.128 99.0608L214.398 101.331L224.043 91.6856Z" fill="#00544F"/>
<path d="M221.774 101.333L224.044 99.0631L214.399 89.4182L212.129 91.688L221.774 101.333Z" fill="#00544F"/>
<path d="M198.4 91.22V99.85H188.7V91.22H198.4ZM199.89 89.74H187.22V101.34H199.89V89.74Z" fill="#00544F"/>
<path d="M174.93 98.78H162.26V101.34H174.93V98.78Z" fill="#00544F"/>
<path d="M174.24 170.95H193.29" stroke="#ADCB53" stroke-width="2.79" stroke-linecap="round" stroke-linejoin="round"/>
<path d="M105.78 170.95H165.12" stroke="#ADCB53" stroke-width="2.79" stroke-linecap="round" stroke-linejoin="round"/>
<path d="M79.9299 170.95H95.3899" stroke="#ADCB53" stroke-width="2.79" stroke-linecap="round" stroke-linejoin="round"/>
<path d="M79.9299 191.11H94.4399" stroke="#ADCB53" stroke-width="2.79" stroke-linecap="round" stroke-linejoin="round"/>
<path d="M105.93 191.11H196.22" stroke="#ADCB53" stroke-width="2.79" stroke-linecap="round" stroke-linejoin="round"/>
<path d="M174.24 126.93H193.29" stroke="#ADCB53" stroke-width="2.79" stroke-linecap="round" stroke-linejoin="round"/>
<path d="M105.78 126.93H165.12" stroke="#ADCB53" stroke-width="2.79" stroke-linecap="round" stroke-linejoin="round"/>
<path d="M79.9299 126.93H95.3899" stroke="#ADCB53" stroke-width="2.79" stroke-linecap="round" stroke-linejoin="round"/>
<path d="M178.24 147.09H193.29" stroke="#ADCB53" stroke-width="2.79" stroke-linecap="round" stroke-linejoin="round"/>
<path d="M79.9299 147.09H94.4399" stroke="#ADCB53" stroke-width="2.79" stroke-linecap="round" stroke-linejoin="round"/>
<path d="M101.04 147.09H172.17" stroke="#ADCB53" stroke-width="2.79" stroke-linecap="round" stroke-linejoin="round"/>
<path d="M113.72 293.14V162.36L298.01 161.88V293.14H113.72Z" fill="#003834"/>
<path d="M296.94 162.96V292.06H114.8V163.43L296.94 162.96ZM299.09 160.8L112.64 161.28V294.21H299.09V160.8Z" fill="#003834"/>
<path d="M299.09 143.67H112.64V165.28H299.09V143.67Z" fill="#A8C653"/>
<path d="M291.846 150.836L289.577 148.566L279.932 158.211L282.202 160.481L291.846 150.836Z" fill="#003834"/>
<path d="M289.574 160.476L291.844 158.207L282.199 148.562L279.929 150.832L289.574 160.476Z" fill="#003834"/>
<path d="M266.2 150.37V159H256.5V150.37H266.2ZM267.68 148.88H255.01V160.48H267.68V148.88Z" fill="#003834"/>
<path d="M242.73 157.92H230.06V160.48H242.73V157.92Z" fill="#003834"/>
<path d="M205.87 254.16C220.638 254.16 232.61 242.188 232.61 227.42C232.61 212.652 220.638 200.68 205.87 200.68C191.102 200.68 179.13 212.652 179.13 227.42C179.13 242.188 191.102 254.16 205.87 254.16Z" stroke="white" stroke-width="3.02" stroke-miterlimit="10"/>
<path d="M205.87 191.98C216.68 191.98 227.35 197.05 237.6 207.04C245.13 214.39 250.51 222.54 253.44 227.51C250.51 232.48 245.13 240.63 237.6 247.98C227.36 257.97 216.68 263.04 205.87 263.04C195.06 263.04 184.39 257.97 174.14 247.97C166.61 240.63 161.23 232.48 158.3 227.51C161.23 222.54 166.61 214.39 174.14 207.05C184.38 197.05 195.06 191.98 205.87 191.98ZM205.87 189.01C178.69 189.01 159.91 218.6 154.87 227.51C159.91 236.42 178.69 266.01 205.87 266.01C233.05 266.01 251.83 236.43 256.87 227.51C251.83 218.59 233.05 189.01 205.87 189.01Z" fill="#ADCB53"/>
<path d="M221.25 230.67C221.25 239.16 214.37 246.05 205.87 246.05C197.37 246.05 190.49 239.17 190.49 230.67C190.49 222.17 205.87 208.97 205.87 208.97C205.87 208.97 221.25 222.17 221.25 230.67Z" fill="#ADCB53"/>
<path d="M206.13 227.72L205.87 252.02" stroke="white" stroke-width="2.56" stroke-linecap="round" stroke-linejoin="round"/>
<path d="M88.73 269.98V397.61C88.65 397.91 88.64 398.23 88.7 398.54C88.2 399.5 84.73 402.02 76.38 404.45C67.64 407 57.18 408.4 46.93 408.4C36.68 408.4 26.21 407 17.48 404.45C9.12999 402.01 5.66 399.49 5.16 398.54C5.22 398.23 5.21 397.91 5.13 397.61V269.98H88.74M90.73 267.98H3.12V398.13H3.19C3.15 398.27 3.12 398.41 3.12 398.56C3.12 402.83 22.73 410.41 46.92 410.41C71.11 410.41 90.72 402.83 90.72 398.56C90.72 398.42 90.69 398.27 90.65 398.13H90.72V267.98H90.73Z" fill="#ADCB53"/>
<path d="M10.9301 366.68V390.48C10.9301 394.9 27.0401 399.38 46.9201 399.38C66.8 399.38 82.9101 394.9 82.9101 390.48V366.68H10.9301Z" fill="#006D68"/>
<path d="M47.2601 374.69C66.9491 374.69 82.9101 371.104 82.9101 366.68C82.9101 362.256 66.9491 358.67 47.2601 358.67C27.5712 358.67 11.6101 362.256 11.6101 366.68C11.6101 371.104 27.5712 374.69 47.2601 374.69Z" fill="#6FAFAC"/>
<path d="M10.9301 330.31V354.11C10.9301 358.53 27.0401 362.12 46.9201 362.12C66.8 362.12 82.9101 358.54 82.9101 354.11V330.31H10.9301Z" fill="#006D68"/>
<path d="M47.2601 338.32C66.9491 338.32 82.9101 334.734 82.9101 330.31C82.9101 325.886 66.9491 322.3 47.2601 322.3C27.5712 322.3 11.6101 325.886 11.6101 330.31C11.6101 334.734 27.5712 338.32 47.2601 338.32Z" fill="#6FAFAC"/>
<path d="M10.9301 292.6V316.4C10.9301 320.82 27.0401 324.41 46.9201 324.41C66.8 324.41 82.9101 320.83 82.9101 316.4V292.6H10.9301Z" fill="#006D68"/>
<path d="M47.2601 300.61C66.9491 300.61 82.9101 297.024 82.9101 292.6C82.9101 288.176 66.9491 284.59 47.2601 284.59C27.5712 284.59 11.6101 288.176 11.6101 292.6C11.6101 297.024 27.5712 300.61 47.2601 300.61Z" fill="#6FAFAC"/>
<path d="M46.92 281.58C71.1101 281.58 90.72 276.087 90.72 269.31C90.72 262.533 71.1101 257.04 46.92 257.04C22.7299 257.04 3.12 262.533 3.12 269.31C3.12 276.087 22.7299 281.58 46.92 281.58Z" fill="#A8C653" stroke="white" stroke-width="0.89" stroke-linecap="round" stroke-linejoin="round"/>
<path d="M64.4501 250.29H28.4301V265.86H28.4701C28.4401 265.95 28.4301 266.04 28.4301 266.13C28.4301 268.4 36.4901 270.24 46.4401 270.24C56.3901 270.24 64.4501 268.4 64.4501 266.13C64.4501 266.04 64.4301 265.95 64.4101 265.86H64.4501V250.29Z" fill="#338A86"/>
<path d="M64.4501 250.29C64.4501 252.56 56.3901 255.29 46.4401 255.29C36.4901 255.29 28.4301 252.56 28.4301 250.29C28.4301 248.02 36.4901 246.18 46.4401 246.18C56.3901 246.18 64.4501 248.02 64.4501 250.29Z" fill="#A8C653" stroke="white" stroke-width="0.89" stroke-linecap="round" stroke-linejoin="round"/>
<path d="M66.6 155.05C64.58 164.01 56.51 170.73 46.97 170.68C37.43 170.63 29.43 163.81 27.52 154.83" stroke="#00544F" stroke-width="4" stroke-linecap="round" stroke-linejoin="round"/>
<path d="M62.0501 154.71C62.3601 152.24 64.6101 150.48 67.0801 150.79C69.5501 151.1 71.3101 153.35 71.0001 155.82C70.6901 158.29 68.4401 160.05 65.9701 159.74C63.5001 159.43 61.7401 157.18 62.0501 154.71Z" fill="#00544F"/>
<path d="M32.06 154.54C31.78 152.06 29.55 150.28 27.07 150.56C24.59 150.84 22.81 153.07 23.09 155.55C23.37 158.03 25.6 159.81 28.08 159.53C30.56 159.25 32.34 157.02 32.06 154.54Z" fill="#00544F"/>
<path d="M76.33 182.42C74.16 196.76 61.66 207.8 46.76 207.71C31.86 207.63 19.49 196.45 17.48 182.09" stroke="#00544F" stroke-width="4" stroke-linecap="round" stroke-linejoin="round"/>
<path d="M71.76 182.23C71.98 179.75 74.18 177.92 76.66 178.14C79.14 178.36 80.97 180.56 80.75 183.04C80.53 185.52 78.33 187.35 75.85 187.13C73.37 186.91 71.54 184.71 71.76 182.23Z" fill="#00544F"/>
<path d="M22.04 181.95C21.84 179.47 19.67 177.61 17.19 177.81C14.71 178.01 12.85 180.18 13.05 182.66C13.25 185.14 15.42 187 17.9 186.8C20.38 186.6 22.24 184.43 22.04 181.95Z" fill="#00544F"/>
<path d="M47.18 132.74L46.29 249.6" stroke="#00544F" stroke-width="4" stroke-linecap="round" stroke-linejoin="round"/>
<path d="M42.6701 132.93C42.6901 130.44 44.7201 128.43 47.2201 128.45C49.7101 128.47 51.7201 130.5 51.7001 133C51.6801 135.49 49.6501 137.5 47.1501 137.48C44.6501 137.46 42.6501 135.43 42.6701 132.93Z" fill="#00544F"/>
<path d="M348.46 94.99C345.72 99.35 344.14 104.32 344.06 109.62C343.82 126.9 368.48 146.29 379.95 146.29C395.45 146.29 416.88 127.55 416.88 110.01C416.88 102.81 414.08 96.18 409.38 90.87C407.14 88.35 406.6 85 408.01 82.07C409.48 79.02 410.28 75.68 410.28 72.18C410.28 66.21 407.94 60.72 404 56.35C401.52 53.6 401.09 49.89 402.92 46.78C404.66 43.82 405.64 40.48 405.64 36.94C405.64 24.92 390.36 0.919983 380.47 0.919983C371.78 0.919983 355.3 24.92 355.3 36.94C355.3 40.48 356.28 43.83 358.02 46.78C359.85 49.89 359.41 53.6 356.94 56.35C353 60.72 350.66 66.21 350.66 72.18C350.66 75.68 351.47 79.03 352.93 82.07C354.34 85 353.81 88.34 351.57 90.86C350.41 92.16 349.37 93.55 348.46 95" fill="#338A86"/>
<path d="M380.47 28.31V206.09" stroke="#00544F" stroke-width="2.14" stroke-miterlimit="10"/>
<path d="M412.39 205.17H332.48" stroke="#00544F" stroke-width="2.14" stroke-miterlimit="10"/>
<path d="M347.41 205.17V174.73" stroke="#00544F" stroke-width="2.14" stroke-miterlimit="10"/>
<path d="M352.23 174.97C352.23 172.31 350.07 170.15 347.41 170.15C344.75 170.15 342.59 172.31 342.59 174.97C342.59 177.63 344.75 179.79 347.41 179.79C350.07 179.79 352.23 177.63 352.23 174.97Z" fill="#00544F"/>
<path d="M364.5 205.17V158.9" stroke="#00544F" stroke-width="2.14" stroke-miterlimit="10"/>
<path d="M369.32 159.14C369.32 156.48 367.16 154.32 364.5 154.32C361.84 154.32 359.68 156.48 359.68 159.14C359.68 161.8 361.84 163.96 364.5 163.96C367.16 163.96 369.32 161.8 369.32 159.14Z" fill="#00544F"/>
</svg>

<svg xmlns="http://www.w3.org/2000/svg" width="420" height="420" fill="none" viewBox="0 0 420 420"><path fill="#ebf2d4" d="M272.15 57.85c-16.24-6.09-33.18-11.18-50.52-11.11-23.37.1-45.58 9.53-66.84 19.24-39.13 17.86-69.99 45.85-102.07 74.28-25.97 23.01-30.23 70.73-29.45 103.15.09 3.91.19 7.84.37 11.77.55 12.09 1.84 24.14 6.08 35.41 6.79 18.07 22.55 33.32 34.45 48.19 12.88 16.1 25.51 29.53 42.85 41.02 19.63 13.01 47.71 35.36 71.93 37.41 30.49 2.58 53.83 3.82 83.14-5.31 31.21-9.73 65.42-23.93 87.88-48.81 11.78-13.05 19.47-31.67 28.23-46.84 17.1-29.6 24.19-61.52 19.79-95.54-4.61-35.61-18.6-62.91-33.35-94.74-18.95-40.88-52.25-53.03-92.48-68.11z"/><path fill="#adcb53" d="M408.75 216.51c2.68 0 4.85 2.18 4.85 4.85v44.75c0 2.68-2.18 4.85-4.85 4.85H249.38c-2.68 0-4.85-2.18-4.85-4.85v-44.75c0-2.68 2.18-4.85 4.85-4.85zm0-2.79H249.38c-4.2 0-7.64 3.44-7.64 7.64v44.75c0 4.2 3.44 7.64 7.64 7.64h159.37c4.2 0 7.64-3.44 7.64-7.64v-44.75c0-4.2-3.44-7.64-7.64-7.64"/><path fill="#adcb53" d="M408.75 274.67c2.68 0 4.85 2.18 4.85 4.85v44.75c0 2.68-2.18 4.85-4.85 4.85H249.38c-2.68 0-4.85-2.18-4.85-4.85v-44.75c0-2.68 2.18-4.85 4.85-4.85zm0-2.79H249.38c-4.2 0-7.64 3.44-7.64 7.64v44.75c0 4.2 3.44 7.64 7.64 7.64h159.37c4.2 0 7.64-3.44 7.64-7.64v-44.75c0-4.2-3.44-7.64-7.64-7.64"/><path fill="#a9c753" d="m364.79 308.07 9.6 9.61 6.17-6.18 6.18 6.18 9.6-9.61-6.17-6.17 6.17-6.17-9.6-9.61-6.18 6.18-6.17-6.18-9.6 9.61 6.17 6.17z"/><path fill="#00544f" d="M314.05 307.59h36.73v-13.87h-36.73z"/><path fill="#a9c753" d="m364.79 249.91 9.6 9.6 6.17-6.17 6.18 6.17 9.6-9.6-6.17-6.18 6.17-6.17-9.6-9.6-6.18 6.17-6.17-6.17-9.6 9.6 6.17 6.17z"/><path fill="#00544f" d="M314.05 250.67h36.73V236.8h-36.73z"/><path fill="#adcb53" d="M228.51 104.46v127.83H47.64V104.93zm2.79-2.8-186.45.48v132.93H231.3z"/><path fill="#a8c653" d="M231.3 84.52H44.85v21.61H231.3z"/><path fill="#00544f" d="m224.043 91.686-2.27-2.27-9.645 9.645 2.27 2.27z"/><path fill="#00544f" d="m221.774 101.333 2.27-2.27-9.645-9.645-2.27 2.27zM198.4 91.22v8.63h-9.7v-8.63zm1.49-1.48h-12.67v11.6h12.67zm-24.96 9.04h-12.67v2.56h12.67z"/><path stroke="#adcb53" stroke-linecap="round" stroke-linejoin="round" stroke-width="2.79" d="M174.24 170.95h19.05m-87.51 0h59.34m-85.19 0h15.46m-15.46 20.16h14.51m11.49 0h90.29m-21.98-64.18h19.05m-87.51 0h59.34m-85.19 0h15.46m82.85 20.16h15.05m-113.36 0h14.51m6.6 0h71.13"/><path fill="#003834" d="M113.72 293.14V162.36l184.29-.48v131.26z"/><path fill="#003834" d="M296.94 162.96v129.1H114.8V163.43zm2.15-2.16-186.45.48v132.93h186.45z"/><path fill="#a8c653" d="M299.09 143.67H112.64v21.61h186.45z"/><path fill="#003834" d="m291.846 150.836-2.269-2.27-9.645 9.645 2.27 2.27z"/><path fill="#003834" d="m289.574 160.476 2.27-2.269-9.645-9.645-2.27 2.27zM266.2 150.37V159h-9.7v-8.63zm1.48-1.49h-12.67v11.6h12.67zm-24.95 9.04h-12.67v2.56h12.67z"/><path stroke="#fff" stroke-miterlimit="10" stroke-width="3.02" d="M205.87 254.16c14.768 0 26.74-11.972 26.74-26.74s-11.972-26.74-26.74-26.74-26.74 11.972-26.74 26.74 11.972 26.74 26.74 26.74Z"/><path fill="#adcb53" d="M205.87 191.98c10.81 0 21.48 5.07 31.73 15.06 7.53 7.35 12.91 15.5 15.84 20.47-2.93 4.97-8.31 13.12-15.84 20.47-10.24 9.99-20.92 15.06-31.73 15.06s-21.48-5.07-31.73-15.07c-7.53-7.34-12.91-15.49-15.84-20.46 2.93-4.97 8.31-13.12 15.84-20.46 10.24-10 20.92-15.07 31.73-15.07m0-2.97c-27.18 0-45.96 29.59-51 38.5 5.04 8.91 23.82 38.5 51 38.5s45.96-29.58 51-38.5c-5.04-8.92-23.82-38.5-51-38.5"/><path fill="#adcb53" d="M221.25 230.67c0 8.49-6.88 15.38-15.38 15.38s-15.38-6.88-15.38-15.38 15.38-21.7 15.38-21.7 15.38 13.2 15.38 21.7"/><path stroke="#fff" stroke-linecap="round" stroke-linejoin="round" stroke-width="2.56" d="m206.13 227.72-.26 24.3"/><path fill="#adcb53" d="M88.73 269.98v127.63c-.08.3-.09.62-.03.93-.5.96-3.97 3.48-12.32 5.91-8.74 2.55-19.2 3.95-29.45 3.95s-20.72-1.4-29.45-3.95c-8.35-2.44-11.82-4.96-12.32-5.91.06-.31.05-.63-.03-.93V269.98h83.61m1.99-2H3.12v130.15h.07c-.04.14-.07.28-.07.43 0 4.27 19.61 11.85 43.8 11.85s43.8-7.58 43.8-11.85c0-.14-.03-.29-.07-.43h.07V267.98z"/><path fill="#006d68" d="M10.93 366.68v23.8c0 4.42 16.11 8.9 35.99 8.9s35.99-4.48 35.99-8.9v-23.8z"/><path fill="#6fafac" d="M47.26 374.69c19.69 0 35.65-3.586 35.65-8.01s-15.96-8.01-35.65-8.01-35.65 3.586-35.65 8.01 15.961 8.01 35.65 8.01"/><path fill="#006d68" d="M10.93 330.31v23.8c0 4.42 16.11 8.01 35.99 8.01s35.99-3.58 35.99-8.01v-23.8z"/><path fill="#6fafac" d="M47.26 338.32c19.69 0 35.65-3.586 35.65-8.01s-15.96-8.01-35.65-8.01-35.65 3.586-35.65 8.01 15.961 8.01 35.65 8.01"/><path fill="#006d68" d="M10.93 292.6v23.8c0 4.42 16.11 8.01 35.99 8.01s35.99-3.58 35.99-8.01v-23.8z"/><path fill="#6fafac" d="M47.26 300.61c19.69 0 35.65-3.586 35.65-8.01s-15.96-8.01-35.65-8.01-35.65 3.586-35.65 8.01 15.961 8.01 35.65 8.01"/><path fill="#a8c653" stroke="#fff" stroke-linecap="round" stroke-linejoin="round" stroke-width=".89" d="M46.92 281.58c24.19 0 43.8-5.493 43.8-12.27s-19.61-12.27-43.8-12.27-43.8 5.493-43.8 12.27 19.61 12.27 43.8 12.27"/><path fill="#338a86" d="M64.45 250.29H28.43v15.57h.04c-.03.09-.04.18-.04.27 0 2.27 8.06 4.11 18.01 4.11s18.01-1.84 18.01-4.11c0-.09-.02-.18-.04-.27h.04z"/><path fill="#a8c653" stroke="#fff" stroke-linecap="round" stroke-linejoin="round" stroke-width=".89" d="M64.45 250.29c0 2.27-8.06 5-18.01 5s-18.01-2.73-18.01-5 8.06-4.11 18.01-4.11 18.01 1.84 18.01 4.11"/><path stroke="#00544f" stroke-linecap="round" stroke-linejoin="round" stroke-width="4" d="M66.6 155.05c-2.02 8.96-10.09 15.68-19.63 15.63s-17.54-6.87-19.45-15.85"/><path fill="#00544f" d="M62.05 154.71a4.51 4.51 0 0 1 5.03-3.92 4.51 4.51 0 0 1 3.92 5.03 4.51 4.51 0 0 1-5.03 3.92 4.51 4.51 0 0 1-3.92-5.03m-29.99-.17a4.51 4.51 0 0 0-4.99-3.98 4.51 4.51 0 0 0-3.98 4.99 4.51 4.51 0 0 0 4.99 3.98 4.51 4.51 0 0 0 3.98-4.99"/><path stroke="#00544f" stroke-linecap="round" stroke-linejoin="round" stroke-width="4" d="M76.33 182.42c-2.17 14.34-14.67 25.38-29.57 25.29-14.9-.08-27.27-11.26-29.28-25.62"/><path fill="#00544f" d="M71.76 182.23c.22-2.48 2.42-4.31 4.9-4.09s4.31 2.42 4.09 4.9-2.42 4.31-4.9 4.09-4.31-2.42-4.09-4.9m-49.72-.28c-.2-2.48-2.37-4.34-4.85-4.14s-4.34 2.37-4.14 4.85 2.37 4.34 4.85 4.14 4.34-2.37 4.14-4.85"/><path stroke="#00544f" stroke-linecap="round" stroke-linejoin="round" stroke-width="4" d="m47.18 132.74-.89 116.86"/><path fill="#00544f" d="M42.67 132.93c.02-2.49 2.05-4.5 4.55-4.48 2.49.02 4.5 2.05 4.48 4.55a4.513 4.513 0 0 1-4.55 4.48c-2.5-.02-4.5-2.05-4.48-4.55"/><path fill="#338a86" d="M348.46 94.99c-2.74 4.36-4.32 9.33-4.4 14.63-.24 17.28 24.42 36.67 35.89 36.67 15.5 0 36.93-18.74 36.93-36.28 0-7.2-2.8-13.83-7.5-19.14-2.24-2.52-2.78-5.87-1.37-8.8 1.47-3.05 2.27-6.39 2.27-9.89 0-5.97-2.34-11.46-6.28-15.83-2.48-2.75-2.91-6.46-1.08-9.57 1.74-2.96 2.72-6.3 2.72-9.84 0-12.02-15.28-36.02-25.17-36.02-8.69 0-25.17 24-25.17 36.02 0 3.54.98 6.89 2.72 9.84 1.83 3.11 1.39 6.82-1.08 9.57-3.94 4.37-6.28 9.86-6.28 15.83 0 3.5.81 6.85 2.27 9.89 1.41 2.93.88 6.27-1.36 8.79-1.16 1.3-2.2 2.69-3.11 4.14"/><path stroke="#00544f" stroke-miterlimit="10" stroke-width="2.14" d="M380.47 28.31v177.78m31.92-.92h-79.91m14.93 0v-30.44"/><path fill="#00544f" d="M352.23 174.97c0-2.66-2.16-4.82-4.82-4.82s-4.82 2.16-4.82 4.82 2.16 4.82 4.82 4.82 4.82-2.16 4.82-4.82"/><path stroke="#00544f" stroke-miterlimit="10" stroke-width="2.14" d="M364.5 205.17V158.9"/><path fill="#00544f" d="M369.32 159.14c0-2.66-2.16-4.82-4.82-4.82s-4.82 2.16-4.82 4.82 2.16 4.82 4.82 4.82 4.82-2.16 4.82-4.82"/></svg>
